; generated by PrusaSlicer 2.5.2+win64 on 2023-07-16 at 13:41:58 UTC


;
;
; 

; external perimeters extrusion width = 0.45mm
; perimeters extrusion width = 0.45mm
; infill extrusion width = 0.45mm
; solid infill extrusion width = 0.45mm
; top infill extrusion width = 0.40mm
; first layer extrusion width = 0.42mm

M73 P0 R119
M73 Q0 S120
M201 X1000 Y1000 Z200 E5000 ; sets maximum accelerations, mm/sec^2
M203 X200 Y200 Z12 E120 ; sets maximum feedrates, mm / sec
M204 P1250 R1250 T1250 ; sets acceleration (P, T) and retract acceleration (R), mm/sec^2
M205 X8.00 Y8.00 Z0.40 E4.50 ; sets the jerk limits, mm/sec
M205 S0 T0 ; sets the minimum extruding and travel feed rate, mm/sec
M107
;TYPE:Custom
M862.3 P "MK3S" ; printer model check
M862.1 P0.4 ; nozzle diameter check
M115 U3.12.2 ; tell printer latest fw version
G90 ; use absolute coordinates
M83 ; extruder relative mode
M104 S240 ; set extruder temp
M140 S85 ; set bed temp
M190 S85 ; wait for bed temp
M109 S240 ; wait for extruder temp
G28 W ; home all without mesh bed level
G80 ; mesh bed leveling

G1 Z0.2 F720
G1 Y-3 F1000 ; go outside print area
G92 E0
G1 X60 E9 F1000 ; intro line
G1 X100 E12.5 F1000 ; intro line

G92 E0
M221 S95

; Don't change E values below. Excessive value can damage the printer.
M907 E430 ; set extruder motor current
G21 ; set units to millimeters
G90 ; use absolute coordinates
M83 ; use relative distances for extrusion
M900 K0.08 ; Filament gcode LA 1.5
M900 K45 ; Filament gcode LA 1.0
M107
;LAYER_CHANGE
;Z:0.2
;HEIGHT:0.2
;BEFORE_LAYER_CHANGE
G92 E0.0
;0.2


G1 E-1 F2520
G1 Z.2 F720
;AFTER_LAYER_CHANGE
;0.2
G1 Z.4
G1 X98.662 Y74.669 F10800
G1 Z.2 F720
G1 E1 F2520
M204 S800
;TYPE:Skirt/Brim
;WIDTH:0.42
G1 F1200
G1 X99.412 Y73.884 E.03403
G1 X100.337 Y73.186 E.03632
G1 X101.372 Y72.652 E.03653
G1 X111.228 Y69.252 E.32688
G1 X111.999 Y69.123 E.02452
G1 X137.999 Y69.123 E.81521
G1 X138.77 Y69.252 E.02452
G1 X148.456 Y72.58 E.32112
G1 X149.435 Y73.045 E.03397
G1 X150.59 Y73.887 E.04482
G1 X151.333 Y74.666 E.03376
G1 X151.815 Y75.341 E.02602
G1 X152.419 Y76.547 E.04228
G1 X155.747 Y86.23 E.32103
G1 X155.875 Y87.001 E.02452
G1 X155.875 Y123.001 E1.12875
G1 X155.747 Y123.773 E.02452
G1 X152.498 Y133.241 E.31387
G1 X151.953 Y134.435 E.04114
G1 X151.335 Y135.332 E.03417
G1 X150.587 Y136.115 E.03394
G1 X149.658 Y136.815 E.03646
G1 X148.632 Y137.346 E.03624
G1 X138.771 Y140.749 E.32708
G1 X137.999 Y140.877 E.02452
G1 X111.999 Y140.877 E.81521
G1 X111.227 Y140.749 E.02452
G1 X101.759 Y137.5 E.31387
G1 X100.563 Y136.953 E.04121
G1 X99.671 Y136.338 E.03401
G1 X98.884 Y135.587 E.0341
G1 X98.184 Y134.659 E.03646
G1 X97.653 Y133.631 E.03628
G1 X94.251 Y123.773 E.32697
G1 X94.123 Y123.001 E.02452
G1 X94.123 Y87.001 E1.12875
G1 X94.251 Y86.23 E.02452
M73 Q0 S119
G1 X97.5 Y76.759 E.31392
G1 X98.046 Y75.563 E.04122
G1 X98.628 Y74.718 E.03219
M204 S1000
; printing object aa_4x3_battery_box_top_lv_hang_logo_v3.stl id:0 copy 0
;WIPE_START
G1 F8640
G1 X99.412 Y73.884 E-.31717
G1 X100.337 Y73.186 E-.32098
G1 X101.337 Y72.67 E-.31185
;WIPE_END
G1 E-.05 F2520
G1 Z.4 F720
G1 X129.596 Y102.938 F10800
G1 Z.2 F720
G1 E1 F2520
M204 S800
;TYPE:Perimeter
;WIDTH:0.419999
G1 F1200
G1 X129.579 Y100.995 E.06093
G1 X129.843 Y101.068 E.00858
G1 X132.512 Y101.055 E.0837
G1 X129.646 Y102.905 E.10696
M204 S1000
;WIPE_START
G1 F8640
G1 X129.579 Y100.995 E-.52973
G1 X129.843 Y101.068 E-.07586
G1 X131.086 Y101.062 E-.3444
;WIPE_END
G1 E-.05 F2520
G1 Z.4 F720
G1 X133.615 Y106.714 F10800
G1 Z.2 F720
G1 E1 F2520
M204 S800
G1 F1200
G1 X129.639 Y108.243 E.13358
G1 X129.596 Y108.305 E.00236
G1 X129.596 Y105.558 E.08614
G1 X129.842 Y105.764 E.01006
G1 X136.092 Y105.761 E.19597
G1 X133.671 Y106.692 E.08133
M204 S1000
;WIPE_START
G1 F8640
G1 X130.471 Y107.923 E-.95
;WIPE_END
G1 E-.05 F2520
G1 Z.4 F720
G1 X129.596 Y113.816 F10800
G1 Z.2 F720
G1 E1 F2520
M204 S800
G1 F1200
G1 X129.596 Y111.036 E.08717
G1 X129.638 Y111.087 E.00208
G1 X136.086 Y113.573 E.21668
G1 X129.842 Y113.57 E.19578
G1 X129.638 Y113.773 E.00901
M204 S1000
;WIPE_START
G1 F8640
G1 X129.596 Y111.036 E-.75864
G1 X129.638 Y111.087 E-.01835
G1 X130.221 Y111.311 E-.173
;WIPE_END
G1 E-.05 F2520
G1 Z.4 F720
G1 X129.596 Y117.865 F10800
G1 Z.2 F720
G1 E1 F2520
M204 S800
G1 F1200
G1 X129.596 Y116.42 E.04532
G1 X129.842 Y116.626 E.01005
G1 X132.178 Y116.626 E.07326
G1 X132.178 Y117.62 E.03116
G1 X129.842 Y117.62 E.07326
G1 X129.639 Y117.823 E.009
M204 S1000
;WIPE_START
G1 F8640
G1 X129.596 Y116.42 E-.38895
G1 X129.842 Y116.626 E-.08883
G1 X131.546 Y116.626 E-.47222
;WIPE_END
G1 E-.05 F2520
G1 Z.4 F720
G1 X100.667 Y117.304 F10800
G1 Z.2 F720
G1 E1 F2520
M204 S800
G1 F1200
G1 X100.687 Y117.22 E.00271
G1 X100.68 Y92.69 E.76912
G1 X100.591 Y92.464 E.00763
G1 X100.373 Y92.273 E.00909
G1 X100.121 Y92.214 E.00809
G1 X97.687 Y92.214 E.07633
G1 X97.687 Y87.788 E.13877
G1 X99.9 Y87.788 E.06938
G1 X100.257 Y87.771 E.01122
G1 X100.459 Y87.676 E.00698
G1 X100.611 Y87.505 E.0072
G1 X100.687 Y87.222 E.00917
G1 X100.687 Y79.031 E.25682
G1 X100.739 Y78.427 E.01901
G1 X100.888 Y77.874 E.01796
G1 X101.136 Y77.342 E.01839
G1 X101.464 Y76.873 E.01798
G1 X101.873 Y76.464 E.01812
G1 X102.341 Y76.135 E.01792
G1 X102.873 Y75.888 E.01841
G1 X103.412 Y75.744 E.0175
G1 X104.032 Y75.689 E.01951
G1 X112.262 Y75.687 E.25803
G1 X112.53 Y75.597 E.00887
G1 X112.724 Y75.38 E.00912
G1 X112.786 Y75.123 E.00829
G1 X112.786 Y72.687 E.07639
G1 X117.212 Y72.687 E.13877
G1 X117.212 Y74.9 E.06938
G1 X117.23 Y75.263 E.0114
G1 X117.328 Y75.467 E.00711
G1 X117.501 Y75.617 E.00717
G1 X117.778 Y75.689 E.00895
G1 X132.22 Y75.689 E.45285
G1 X132.271 Y75.687 E.00158
G1 X132.539 Y75.591 E.00891
G1 X132.728 Y75.372 E.00908
G1 X132.786 Y75.123 E.00801
G1 X132.786 Y72.687 E.07639
G1 X137.212 Y72.687 E.13877
G1 X137.214 Y75.173 E.07793
G1 X137.322 Y75.458 E.00958
G1 X137.521 Y75.627 E.00818
G1 X137.778 Y75.689 E.00829
G1 X145.967 Y75.689 E.25676
G1 X146.571 Y75.741 E.01902
G1 X147.139 Y75.893 E.01843
G1 X147.658 Y76.136 E.01796
G1 X148.115 Y76.456 E.01751
G1 X148.533 Y76.872 E.01851
G1 X148.869 Y77.355 E.01843
G1 X149.11 Y77.874 E.01794
G1 X149.256 Y78.413 E.01753
G1 X149.311 Y79.032 E.01948
G1 X149.315 Y87.288 E.25886
G1 X149.4 Y87.527 E.00795
G1 X149.615 Y87.724 E.00914
G1 X149.877 Y87.788 E.00844
G1 X152.311 Y87.788 E.07633
G1 X152.311 Y92.214 E.13877
G1 X150.098 Y92.214 E.06938
G1 X149.734 Y92.232 E.01143
G1 X149.528 Y92.334 E.0072
G1 X149.381 Y92.508 E.00715
G1 X149.311 Y92.78 E.0088
G1 X149.313 Y117.266 E.76776
G1 X149.404 Y117.532 E.0088
G1 X149.621 Y117.725 E.00912
G1 X149.877 Y117.786 E.00823
G1 X152.311 Y117.786 E.07633
G1 X152.311 Y122.214 E.13883
G1 X150.097 Y122.214 E.06942
G1 X149.738 Y122.231 E.01127
G1 X149.535 Y122.329 E.00707
G1 X149.384 Y122.501 E.00718
G1 X149.311 Y122.78 E.00902
G1 X149.311 Y130.967 E.2567
G1 X149.259 Y131.572 E.01906
G1 X149.105 Y132.14 E.01843
G1 X148.863 Y132.658 E.01793
G1 X148.542 Y133.116 E.01754
G1 X148.127 Y133.534 E.01846
G1 X147.645 Y133.87 E.01844
G1 X147.125 Y134.112 E.01799
G1 X146.586 Y134.256 E.01749
G1 X145.966 Y134.311 E.01951
G1 X137.707 Y134.315 E.25895
G1 X137.469 Y134.403 E.00794
G1 X137.274 Y134.619 E.00913
G1 X137.212 Y134.877 E.00832
G1 X137.212 Y137.313 E.07639
G1 X132.786 Y137.313 E.13877
G1 X132.786 Y135.1 E.06938
G1 X132.768 Y134.736 E.01142
G1 X132.669 Y134.532 E.00713
G1 X132.496 Y134.383 E.00717
G1 X132.22 Y134.311 E.00892
G1 X117.727 Y134.313 E.45444
G1 X117.477 Y134.398 E.00827
G1 X117.278 Y134.611 E.00915
G1 X117.212 Y134.877 E.00857
G1 X117.212 Y137.313 E.07639
G1 X112.786 Y137.313 E.13877
G1 X112.786 Y135.1 E.06938
G1 X112.767 Y134.732 E.01157
G1 X112.663 Y134.524 E.00727
G1 X112.488 Y134.379 E.00713
G1 X112.22 Y134.311 E.00867
G1 X104.031 Y134.311 E.25676
G1 X103.427 Y134.259 E.01902
G1 X102.86 Y134.107 E.0184
G1 X102.341 Y133.863 E.01797
G1 X101.884 Y133.542 E.01752
G1 X101.464 Y133.127 E.01853
G1 X101.129 Y132.645 E.0184
G1 X100.888 Y132.126 E.01793
G1 X100.742 Y131.587 E.01752
G1 X100.687 Y130.966 E.01954
G1 X100.686 Y122.74 E.25791
G1 X100.605 Y122.487 E.00834
G1 X100.394 Y122.284 E.00917
G1 X100.121 Y122.214 E.00884
G1 X97.687 Y122.214 E.07633
G1 X97.687 Y117.786 E.13883
G1 X99.901 Y117.786 E.06942
G1 X100.272 Y117.766 E.01164
G1 X100.482 Y117.656 E.00743
G1 X100.624 Y117.481 E.00708
G1 X100.652 Y117.363 E.00381
M204 S1000
G1 X100.31 Y117.22 F10800
M204 S800
;TYPE:External perimeter
G1 F1200
G1 X100.31 Y92.78 E.76633
G1 X100.268 Y92.661 E.00394
M73 P0 R118
G1 X100.121 Y92.591 E.0051
G1 X97.31 Y92.591 E.08815
G1 X97.31 Y87.411 E.16242
G1 X100.121 Y87.411 E.08815
G1 X100.254 Y87.356 E.0045
G1 X100.31 Y87.222 E.00455
G1 X100.31 Y79.015 E.25733
G1 X100.366 Y78.362 E.02057
G1 X100.532 Y77.744 E.02004
G1 X100.808 Y77.153 E.02046
G1 X101.174 Y76.629 E.02005
G1 X101.629 Y76.174 E.02017
G1 X102.151 Y75.808 E.02
G1 X102.744 Y75.532 E.02049
G1 X103.347 Y75.371 E.01956
G1 X104.016 Y75.312 E.02106
G1 X112.22 Y75.312 E.25726
G1 X112.337 Y75.272 E.00386
G1 X112.409 Y75.123 E.00517
G1 X112.409 Y72.31 E.08821
G1 X117.589 Y72.31 E.16242
G1 X117.589 Y75.123 E.08821
G1 X117.646 Y75.258 E.00458
G1 X117.778 Y75.312 E.00447
G1 X132.22 Y75.312 E.45285
G1 X132.34 Y75.269 E.00397
G1 X132.409 Y75.123 E.00507
G1 X132.409 Y72.31 E.08821
G1 X137.589 Y72.31 E.16241
G1 X137.589 Y75.123 E.08821
G1 X137.643 Y75.255 E.00447
G1 X137.778 Y75.312 E.00458
G1 X145.983 Y75.312 E.25727
G1 X146.637 Y75.368 E.02057
G1 X147.268 Y75.538 E.02051
G1 X147.847 Y75.808 E.02002
G1 X148.358 Y76.165 E.01957
G1 X148.823 Y76.629 E.02059
G1 X149.198 Y77.166 E.02052
G1 X149.466 Y77.744 E.01998
G1 X149.629 Y78.347 E.01958
G1 X149.688 Y79.016 E.02104
G1 X149.688 Y87.222 E.25732
G1 X149.727 Y87.337 E.0038
G1 X149.877 Y87.411 E.00523
G1 X152.688 Y87.411 E.08815
G1 X152.688 Y92.591 E.16242
G1 X149.877 Y92.591 E.08815
G1 X149.741 Y92.649 E.00464
G1 X149.688 Y92.78 E.00441
G1 X149.688 Y117.22 E.76633
G1 X149.729 Y117.337 E.00388
G1 X149.877 Y117.409 E.00515
G1 X152.688 Y117.409 E.08815
G1 X152.688 Y122.591 E.16248
G1 X149.877 Y122.591 E.08815
G1 X149.743 Y122.647 E.00456
G1 X149.688 Y122.78 E.00449
G1 X149.688 Y130.983 E.25721
G1 X149.632 Y131.638 E.02063
G1 X149.461 Y132.27 E.02052
G1 X149.19 Y132.847 E.01998
G1 X148.833 Y133.359 E.01958
G1 X148.371 Y133.824 E.02055
G1 X147.833 Y134.198 E.02053
G1 X147.254 Y134.468 E.02005
G1 X146.651 Y134.629 E.01955
G1 X145.982 Y134.688 E.02106
G1 X137.778 Y134.688 E.25726
G1 X137.662 Y134.728 E.00385
G1 X137.589 Y134.877 E.00519
G1 X137.589 Y137.69 E.08821
G1 X132.409 Y137.69 E.16241
G1 X132.409 Y134.877 E.08821
G1 X132.352 Y134.742 E.00459
G1 X132.22 Y134.688 E.00446
G1 X117.778 Y134.688 E.45285
G1 X117.648 Y134.739 E.00436
G1 X117.589 Y134.877 E.00469
G1 X117.589 Y137.69 E.08821
G1 X112.409 Y137.69 E.16242
G1 X112.409 Y134.877 E.08821
G1 X112.368 Y134.759 E.0039
G1 X112.22 Y134.688 E.00513
G1 X104.015 Y134.688 E.25727
G1 X103.361 Y134.632 E.02057
G1 X102.73 Y134.463 E.02049
G1 X102.152 Y134.191 E.02005
G1 X101.641 Y133.833 E.01954
G1 X101.174 Y133.37 E.0206
G1 X100.8 Y132.834 E.02051
G1 X100.532 Y132.256 E.01997
G1 X100.369 Y131.653 E.01958
G1 X100.31 Y130.983 E.0211
G1 X100.31 Y122.78 E.2572
G1 X100.261 Y122.653 E.00426
G1 X100.121 Y122.591 E.00479
G1 X97.31 Y122.591 E.08815
G1 X97.31 Y117.409 E.16248
G1 X100.121 Y117.409 E.08815
G1 X100.241 Y117.366 E.004
G1 X100.284 Y117.275 E.00316
M204 S1000
G1 X100.696 Y117.117 F10800
;WIPE_START
G1 F8640
G1 X100.288 Y113.846 E-.95
;WIPE_END
G1 E-.05 F2520
G1 Z.4 F720
G1 X135.587 Y94.072 F10800
G1 Z.2 F720
G1 E1 F2520
M204 S800
;TYPE:Perimeter
G1 F1200
G1 X135.502 Y94.283 E.00713
G1 X135.145 Y94.723 E.01776
G1 X134.752 Y95.007 E.01521
G1 X134.437 Y95.142 E.01072
G1 X134.069 Y95.211 E.01176
G1 X133.686 Y95.209 E.012
G1 X133.298 Y95.13 E.01242
G1 X132.878 Y94.905 E.01495
G1 X132.486 Y94.538 E.01685
G1 X132.254 Y94.157 E.01397
G1 X132.12 Y93.652 E.01639
G1 X132.111 Y93.079 E.01797
G1 X132.213 Y92.631 E.01441
G1 X132.421 Y92.188 E.01532
G1 X132.636 Y91.89 E.01153
G1 X133.068 Y91.428 E.01983
G1 X133.074 Y93.665 E.07013
G1 X133.191 Y93.934 E.00921
G1 X133.38 Y94.088 E.00766
G1 X133.634 Y94.148 E.00819
G1 X135.427 Y94.145 E.05621
G1 X135.532 Y94.097 E.00362
M204 S1000
;WIPE_START
G1 F8640
G1 X135.502 Y94.283 E-.05217
G1 X135.145 Y94.723 E-.15697
G1 X134.752 Y95.007 E-.13439
G1 X134.437 Y95.142 E-.09475
G1 X134.069 Y95.211 E-.10388
G1 X133.686 Y95.209 E-.10605
G1 X133.298 Y95.13 E-.10973
G1 X132.878 Y94.905 E-.13214
G1 X132.72 Y94.757 E-.05992
;WIPE_END
G1 E-.05 F2520
G1 Z.4 F720
G1 X111.616 Y109.529 F10800
G1 Z.2 F720
G1 E1 F2520
M204 S800
G1 F1200
G1 X111.386 Y109.332 E.00946
G1 X111.288 Y109.039 E.0097
G1 X111.237 Y107.919 E.03515
G1 X111.234 Y89.351 E.58217
G1 X111.298 Y89.089 E.00846
G1 X111.459 Y88.9 E.00779
G1 X111.85 Y88.684 E.014
G1 X112.092 Y88.662 E.00764
G1 X112.196 Y88.685 E.00333
G1 X129.296 Y98.56 E.61915
G1 X129.588 Y98.088 E.01741
G1 X129.842 Y98.028 E.00817
G1 X132.36 Y98.028 E.07896
G1 X131.851 Y97.826 E.01718
G1 X131.193 Y97.449 E.02378
G1 X130.473 Y96.848 E.0294
G1 X129.995 Y96.26 E.02377
G1 X129.768 Y95.949 E.01207
G1 X129.383 Y95.14 E.02808
G1 X129.136 Y94.124 E.03277
G1 X129.083 Y93.386 E.02322
G1 X129.108 Y92.806 E.01819
G1 X129.184 Y92.256 E.01741
G1 X129.317 Y91.715 E.01747
G1 X129.567 Y91.051 E.02223
G1 X129.818 Y90.589 E.0165
G1 X130.474 Y89.758 E.03318
G1 X130.933 Y89.31 E.02012
G1 X131.186 Y89.169 E.00907
G1 X131.474 Y89.172 E.00905
G1 X131.728 Y89.32 E.0092
G1 X133.051 Y90.661 E.05907
G1 X133.068 Y90.703 E.00142
G1 X133.068 Y89.274 E.04481
G1 X133.112 Y89.054 E.00703
G1 X133.293 Y88.823 E.0092
G1 X133.529 Y88.718 E.00809
G1 X134.345 Y88.694 E.0256
G1 X134.844 Y88.743 E.01572
G1 X135.693 Y88.954 E.02743
G1 X136.446 Y89.298 E.02596
G1 X136.964 Y89.634 E.01937
G1 X137.544 Y90.146 E.02423
G1 X137.925 Y90.607 E.01876
G1 X138.232 Y91.102 E.01827
G1 X138.435 Y91.56 E.01569
G1 X138.662 Y92.413 E.02768
G1 X138.727 Y93.165 E.02368
G1 X138.713 Y93.84 E.02117
G1 X138.542 Y94.782 E.03001
G1 X138.238 Y95.591 E.02708
G1 X137.8 Y96.321 E.02671
G1 X137.409 Y96.784 E.019
G1 X136.991 Y97.166 E.01775
G1 X136.197 Y97.688 E.0298
G1 X135.399 Y98.027 E.02719
G1 X137.978 Y98.028 E.08088
G1 X138.257 Y98.101 E.00904
G1 X138.465 Y98.304 E.0091
G1 X138.544 Y98.594 E.0094
G1 X138.544 Y100.343 E.05485
G1 X138.47 Y100.623 E.00907
G1 X138.287 Y100.817 E.00837
G1 X135.309 Y102.739 E.11114
G1 X137.977 Y102.726 E.08366
G1 X138.287 Y102.818 E.01013
G1 X138.47 Y103.012 E.00837
G1 X138.544 Y103.292 E.00907
G1 X138.509 Y104.507 E.03813
G1 X138.435 Y105.138 E.0199
G1 X138.384 Y105.33 E.00623
G1 X138.218 Y105.446 E.00632
G1 X138.383 Y105.562 E.00632
G1 X138.468 Y106.062 E.01591
G1 X138.534 Y106.661 E.01889
G1 X138.544 Y107.633 E.03048
G1 X138.486 Y107.888 E.00819
G1 X138.333 Y108.079 E.00767
G1 X137.928 Y108.262 E.01391
G1 X136.958 Y108.63 E.03254
G1 X136.958 Y110.692 E.06463
G1 X138.186 Y111.176 E.0414
G1 X138.415 Y111.342 E.00885
G1 X138.536 Y111.605 E.00906
G1 X138.509 Y113.012 E.04414
G1 X138.427 Y113.616 E.01911
G1 X138.363 Y113.809 E.00638
G1 X138.239 Y113.89 E.00464
G1 X138.363 Y113.971 E.00464
G1 X138.432 Y114.191 E.00724
G1 X138.536 Y115.291 E.03463
G1 X138.544 Y116.056 E.02398
G1 X138.488 Y116.305 E.00801
G1 X138.301 Y116.525 E.00905
G1 X137.978 Y116.626 E.0106
G1 X135.17 Y116.626 E.08805
G1 X135.17 Y117.62 E.03116
G1 X137.978 Y117.62 E.08805
G1 X138.301 Y117.721 E.0106
G1 X138.488 Y117.941 E.00905
G1 X138.544 Y118.186 E.00787
G1 X138.544 Y120.114 E.06048
G1 X138.49 Y120.356 E.00775
G1 X138.314 Y120.57 E.00868
G1 X138.076 Y120.672 E.00812
G1 X129.842 Y120.68 E.25819
G1 X129.616 Y120.633 E.00723
G1 X129.403 Y120.462 E.00855
G1 X128.994 Y120.707 E.01495
G1 X128.711 Y120.73 E.0089
G1 X128.526 Y120.663 E.00618
G1 X112.448 Y111.379 E.58211
G1 X111.277 Y110.685 E.04268
G1 X111.083 Y110.494 E.00854
G1 X111.005 Y110.273 E.00735
G1 X111.025 Y110.032 E.00755
G1 X111.123 Y109.846 E.00659
G1 X111.297 Y109.7 E.00713
G1 X111.563 Y109.557 E.00946
M204 S1000
G1 X111.927 Y109.273 F10800
M204 S800
;TYPE:External perimeter
G1 F1200
G1 X111.698 Y109.119 E.00865
G1 X111.665 Y109.021 E.00323
