; generated by PrusaSlicer 2.5.2+win64 on 2023-05-30 at 12:09:41 UTC


;
;
; 

; external perimeters extrusion width = 0.45mm
; perimeters extrusion width = 0.45mm
; infill extrusion width = 0.45mm
; solid infill extrusion width = 0.45mm
; top infill extrusion width = 0.40mm
; first layer extrusion width = 0.42mm

M73 P0 R81
M73 Q0 S81
M201 X1000 Y1000 Z200 E5000 ; sets maximum accelerations, mm/sec^2
M203 X200 Y200 Z12 E120 ; sets maximum feedrates, mm / sec
M204 P1250 R1250 T1250 ; sets acceleration (P, T) and retract acceleration (R), mm/sec^2
M205 X8.00 Y8.00 Z0.40 E4.50 ; sets the jerk limits, mm/sec
M205 S0 T0 ; sets the minimum extruding and travel feed rate, mm/sec
M107
;TYPE:Custom
M862.3 P "MK3S" ; printer model check
M862.1 P0.4 ; nozzle diameter check
M115 U3.12.2 ; tell printer latest fw version
G90 ; use absolute coordinates
M83 ; extruder relative mode
M104 S240 ; set extruder temp
M140 S85 ; set bed temp
M190 S85 ; wait for bed temp
M109 S240 ; wait for extruder temp
G28 W ; home all without mesh bed level
G80 ; mesh bed leveling

G1 Z0.2 F720
G1 Y-3 F1000 ; go outside print area
G92 E0
G1 X60 E9 F1000 ; intro line
G1 X100 E12.5 F1000 ; intro line

G92 E0
M221 S95

; Don't change E values below. Excessive value can damage the printer.
M907 E430 ; set extruder motor current
G21 ; set units to millimeters
G90 ; use absolute coordinates
M83 ; use relative distances for extrusion
M900 K0.08 ; Filament gcode LA 1.5
M900 K45 ; Filament gcode LA 1.0
M107
;LAYER_CHANGE
;Z:0.2
;HEIGHT:0.2
;BEFORE_LAYER_CHANGE
G92 E0.0
;0.2


G1 E-1 F2520
M73 P0 R80
G1 Z.2 F720
;AFTER_LAYER_CHANGE
;0.2
G1 Z.4
G1 X115.92 Y97.468 F10800
G1 Z.2 F720
G1 E1 F2520
M204 S800
;TYPE:Skirt/Brim
;WIDTH:0.42
G1 F1200
G1 X116.762 Y96.563 E.03877
G1 X118.439 Y95.212 E.06752
G1 X119.502 Y94.582 E.03874
G1 X120.624 Y94.067 E.03873
G1 X121.794 Y93.671 E.03872
G1 X122.904 Y93.415 E.03572
G1 X124.129 Y93.261 E.03872
G1 X125.181 Y93.231 E.03299
G1 X126.281 Y93.298 E.03454
G1 X127.5 Y93.495 E.03872
G1 X128.692 Y93.819 E.03872
G1 X129.756 Y94.225 E.03572
G1 X131.641 Y95.265 E.0675
G1 X132.626 Y96.011 E.03875
G1 X133.463 Y96.786 E.03575
G1 X134.824 Y98.456 E.06756
G1 X135.461 Y99.517 E.03879
G1 X135.947 Y100.55 E.0358
G1 X136.317 Y101.604 E.03501
G1 X136.597 Y102.802 E.03858
G1 X136.768 Y104.816 E.06337
G1 X136.52 Y107.262 E.07709
G1 X135.846 Y109.458 E.07203
G1 X135.299 Y110.668 E.04162
G1 X134.476 Y112.004 E.0492
G1 X133.969 Y112.694 E.02685
G1 X133.189 Y113.537 E.03602
G1 X132.518 Y114.176 E.02904
G1 X131.191 Y115.152 E.05166
G1 X129.394 Y116.073 E.06331
G1 X128.233 Y116.468 E.03845
G1 X127.113 Y116.728 E.03606
G1 X124.952 Y116.918 E.06801
G1 X123.709 Y116.847 E.03903
G1 X122.575 Y116.667 E.03601
G1 X120.501 Y116.03 E.068
G1 X119.462 Y115.543 E.036
G1 X118.394 Y114.905 E.03901
G1 X117.4 Y114.158 E.039
G1 X116.489 Y113.311 E.03899
G1 X115.131 Y111.623 E.06791
G1 X114.544 Y110.639 E.03594
G1 X114.019 Y109.513 E.03894
G1 X113.395 Y107.442 E.06782
G1 X113.211 Y106.216 E.0389
G1 X113.156 Y104.977 E.03888
G1 X113.22 Y103.835 E.03585
G1 X113.414 Y102.611 E.03885
G1 X114.053 Y100.55 E.06766
G1 X114.539 Y99.517 E.0358
G1 X115.176 Y98.456 E.03879
G1 X115.883 Y97.516 E.0369
M204 S1000
G1 X116.184 Y97.743 F10800
M204 S800
G1 F1200
G1 X117.028 Y96.83 E.03895
G1 X118.644 Y95.529 E.06506
G1 X119.672 Y94.918 E.0375
G1 X120.759 Y94.419 E.0375
G1 X121.812 Y94.058 E.0349
G1 X122.976 Y93.786 E.03749
G1 X124.162 Y93.636 E.03748
G1 X125.175 Y93.608 E.03176
G1 X126.235 Y93.672 E.0333
G1 X127.415 Y93.863 E.03749
G1 X128.569 Y94.175 E.03749
G1 X129.609 Y94.573 E.0349
G1 X131.425 Y95.575 E.06503
G1 X132.38 Y96.296 E.03751
G1 X133.197 Y97.053 E.03493
G1 X134.508 Y98.663 E.0651
G1 X135.125 Y99.69 E.03756
G1 X135.6 Y100.699 E.03498
G1 X135.95 Y101.69 E.03293
G1 X136.229 Y102.888 E.03858
G1 X136.392 Y104.841 E.06146
G1 X136.156 Y107.166 E.07328
G1 X135.498 Y109.312 E.07037
G1 X134.957 Y110.508 E.04116
G1 X134.191 Y111.751 E.04577
G1 X133.692 Y112.438 E.02663
G1 X132.92 Y113.274 E.03567
G1 X132.29 Y113.875 E.02729
G1 X130.97 Y114.847 E.05142
G1 X129.258 Y115.721 E.06026
G1 X128.135 Y116.104 E.03721
G1 X127.04 Y116.358 E.03523
G1 X124.958 Y116.541 E.06553
G1 X123.755 Y116.473 E.03779
G1 X122.647 Y116.297 E.03518
G1 X120.649 Y115.684 E.06552
G1 X119.634 Y115.208 E.03517
G1 X118.6 Y114.589 E.03777
G1 X117.638 Y113.865 E.03776
G1 X116.756 Y113.045 E.03775
G1 X115.448 Y111.419 E.06543
G1 X114.875 Y110.457 E.03511
G1 X114.367 Y109.367 E.0377
G1 X113.765 Y107.372 E.06534
G1 X113.586 Y106.184 E.03766
G1 X113.533 Y104.985 E.03764
G1 X113.596 Y103.87 E.03503
G1 X113.784 Y102.685 E.03761
G1 X114.4 Y100.699 E.06519
G1 X114.875 Y99.69 E.03498
G1 X115.492 Y98.663 E.03756
G1 X116.148 Y97.791 E.03424
M204 S1000
; printing object menet.stl id:0 copy 0
;WIPE_START
G1 F8640
G1 X117.028 Y96.83 E-.36077
G1 X118.644 Y95.529 E-.57495
G1 X118.688 Y95.502 E-.01429
;WIPE_END
G1 E-.05 F2520
G1 Z.4 F720
G1 X126.472 Y112.918 F10800
G1 Z.2 F720
G1 E1 F2520
M204 S800
;TYPE:Perimeter
;WIDTH:0.419999
G1 F1200
G1 X125.843 Y113.014 E.01994
G1 X125 Y113.059 E.02648
G1 X124.157 Y113.014 E.02648
G1 X123.612 Y112.937 E.01723
G1 X122.79 Y112.747 E.02648
G1 X121.992 Y112.471 E.02648
G1 X121.49 Y112.246 E.01722
G1 X120.752 Y111.836 E.02647
G1 X120.066 Y111.353 E.0263
G1 X119.431 Y110.798 E.02646
G1 X119.051 Y110.402 E.01721
G1 X118.522 Y109.744 E.02644
G1 X118.068 Y109.04 E.02627
G1 X117.691 Y108.292 E.02626
G1 X117.394 Y107.509 E.02626
M73 Q0 S80
G1 X117.18 Y106.7 E.02624
G1 X117.053 Y105.873 E.02623
G1 X117.012 Y105.033 E.02638
G1 X117.033 Y104.486 E.01716
G1 X117.139 Y103.652 E.02637
G1 X117.33 Y102.839 E.02619
G1 X117.605 Y102.05 E.02618
G1 X117.961 Y101.295 E.02617
G1 X118.393 Y100.581 E.02616
G1 X118.897 Y99.917 E.02615
G1 X119.471 Y99.305 E.0263
G1 X119.877 Y98.941 E.01711
G1 X120.548 Y98.438 E.02629
G1 X121.263 Y98.01 E.02612
G1 X122.019 Y97.66 E.02612
G1 X122.807 Y97.39 E.02611
G1 X123.618 Y97.203 E.02611
G1 X124.449 Y97.101 E.02625
G1 X125.022 Y97.083 E.01795
G1 X125.831 Y97.126 E.02542
G1 X126.654 Y97.256 E.02612
G1 X127.459 Y97.47 E.02611
G1 X128.237 Y97.768 E.02612
G1 X128.98 Y98.145 E.02612
G1 X129.68 Y98.597 E.02613
G1 X130.333 Y99.123 E.02629
G1 X130.726 Y99.501 E.01711
G1 X131.279 Y100.132 E.02631
G1 X131.759 Y100.814 E.02615
G1 X132.169 Y101.547 E.02633
G1 X132.393 Y102.045 E.01713
G1 X132.67 Y102.839 E.02634
G1 X132.861 Y103.652 E.02619
G1 X132.932 Y104.215 E.01779
G1 X132.988 Y105.033 E.02572
G1 X132.947 Y105.873 E.02638
G1 X132.82 Y106.7 E.02623
G1 X132.606 Y107.509 E.02624
G1 X132.309 Y108.292 E.02626
G1 X131.932 Y109.04 E.02626
G1 X131.478 Y109.744 E.02627
G1 X130.949 Y110.402 E.02644
G1 X130.569 Y110.798 E.01721
G1 X129.934 Y111.353 E.02646
G1 X129.248 Y111.836 E.0263
G1 X128.51 Y112.246 E.02647
G1 X128.009 Y112.471 E.01722
G1 X127.21 Y112.747 E.02648
G1 X126.53 Y112.904 E.02189
M204 S1000
G1 X126.557 Y113.285 F10800
M204 S800
;TYPE:External perimeter
G1 F1200
G1 X125.88 Y113.39 E.02149
G1 X125 Y113.436 E.02762
G1 X124.12 Y113.39 E.02762
G1 X123.543 Y113.309 E.01827
G1 X122.685 Y113.11 E.02762
G1 X121.853 Y112.822 E.02762
G1 X121.321 Y112.584 E.01826
G1 X120.552 Y112.155 E.02761
G1 X119.833 Y111.65 E.02755
G1 X119.17 Y111.071 E.0276
G1 X118.767 Y110.651 E.01825
G1 X118.216 Y109.965 E.02758
G1 X117.741 Y109.228 E.02752
G1 X117.345 Y108.445 E.02751
G1 X117.034 Y107.625 E.0275
G1 X116.81 Y106.777 E.02748
G1 X116.677 Y105.911 E.02747
G1 X116.635 Y105.035 E.02752
G1 X116.657 Y104.455 E.01819
G1 X116.768 Y103.585 E.0275
G1 X116.968 Y102.733 E.02743
G1 X117.256 Y101.907 E.02742
G1 X117.628 Y101.117 E.02741
G1 X118.081 Y100.369 E.0274
G1 X118.609 Y99.673 E.02739
G1 X119.207 Y99.035 E.02744
G1 X119.638 Y98.649 E.01814
G1 X120.338 Y98.125 E.02742
G1 X121.087 Y97.677 E.02736
G1 X121.878 Y97.309 E.02735
G1 X122.703 Y97.026 E.02735
G1 X123.553 Y96.831 E.02734
G1 X124.42 Y96.725 E.0274
G1 X125.026 Y96.705 E.01899
G1 X125.871 Y96.75 E.02653
G1 X126.732 Y96.886 E.02735
G1 X127.575 Y97.111 E.02735
G1 X128.39 Y97.423 E.02735
G1 X129.168 Y97.817 E.02736
G1 X129.901 Y98.291 E.02736
G1 X130.582 Y98.84 E.02742
G1 X130.999 Y99.24 E.01814
G1 X131.575 Y99.899 E.02744
G1 X132.079 Y100.613 E.02739
G1 X132.506 Y101.377 E.02746
G1 X132.744 Y101.906 E.01816
G1 X133.032 Y102.733 E.02748
G1 X133.232 Y103.585 E.02743
G1 X133.306 Y104.167 E.01841
G1 X133.365 Y105.035 E.02726
G1 X133.323 Y105.911 E.02752
G1 X133.19 Y106.777 E.02747
G1 X132.966 Y107.625 E.02748
G1 X132.655 Y108.445 E.0275
G1 X132.259 Y109.228 E.02751
G1 X131.784 Y109.965 E.02752
G1 X131.233 Y110.651 E.02758
G1 X130.83 Y111.071 E.01825
G1 X130.167 Y111.65 E.0276
G1 X129.448 Y112.155 E.02755
G1 X128.679 Y112.584 E.02761
G1 X128.147 Y112.822 E.01826
G1 X127.315 Y113.11 E.02762
G1 X126.616 Y113.272 E.02251
M204 S1000
G1 X126.293 Y112.985 F10800
;WIPE_START
G1 F8640
G1 X125.88 Y113.39 E-.20648
G1 X125 Y113.436 E-.24412
G1 X124.12 Y113.39 E-.24412
G1 X123.543 Y113.309 E-.16143
G1 X123.213 Y113.232 E-.09385
;WIPE_END
G1 E-.05 F2520
G1 Z.4 F720
G1 X131.542 Y100.801 F10800
G1 Z.2 F720
G1 E1 F2520
M204 S800
;TYPE:Solid infill
;WIDTH:0.425188
G1 F1200
G1 X130.108 Y99.378 E.06421
G1 X129.481 Y98.872 E.02562
G1 X128.811 Y98.439 E.02536
G1 X128.465 Y98.264 E.01232
G1 X131.821 Y101.62 E.15087
G1 X132.078 Y102.171 E.01931
G1 X132.209 Y102.549 E.01272
G1 X127.516 Y97.856 E.21098
G1 X127.354 Y97.794 E.0055
G1 X126.753 Y97.633 E.01978
G1 X132.433 Y103.313 E.2553
G1 X132.526 Y103.712 E.01304
G1 X132.561 Y103.982 E.00863
G1 X126.089 Y97.51 E.2909
G1 X125.796 Y97.464 E.00945
G1 X125.486 Y97.447 E.00986
G1 X132.631 Y104.593 E.3212
G1 X132.643 Y105.145 E.01756
G1 X124.923 Y97.426 E.347
G1 X124.406 Y97.449 E.01647
G1 X132.618 Y105.661 E.36915
G1 X132.562 Y106.145 E.01551
G1 X123.924 Y97.507 E.38829
G1 X123.463 Y97.587 E.01487
G1 X132.49 Y106.614 E.40577
G1 X132.378 Y107.043 E.0141
G1 X123.023 Y97.688 E.42053
G1 X122.61 Y97.816 E.01374
G1 X132.26 Y107.465 E.43377
G1 X132.111 Y107.857 E.01332
G1 X122.208 Y97.954 E.44518
G1 X121.834 Y98.12 E.01302
G1 X131.955 Y108.241 E.45498
G1 X131.774 Y108.601 E.01279
G1 X121.464 Y98.291 E.46342
G1 X121.123 Y98.49 E.01257
G1 X131.585 Y108.952 E.47029
G1 X131.373 Y109.281 E.01243
G1 X120.784 Y98.692 E.47597
G1 X120.738 Y98.72 E.00172
G1 X120.471 Y98.92 E.01059
G1 X131.155 Y109.604 E.48026
G1 X130.914 Y109.904 E.01222
G1 X120.162 Y99.152 E.48332
G1 X119.872 Y99.402 E.01218
G1 X130.671 Y110.201 E.48545
G1 X130.406 Y110.477 E.01215
G1 X119.597 Y99.667 E.48592
G1 X119.335 Y99.946 E.01216
G1 X130.124 Y110.736 E.485
G1 X129.836 Y110.988 E.01218
G1 X119.082 Y100.234 E.48339
G1 X118.849 Y100.542 E.01226
G1 X129.53 Y111.222 E.48011
G1 X129.212 Y111.445 E.01233
G1 X118.623 Y100.856 E.476
G1 X118.419 Y101.193 E.01251
G1 X128.879 Y111.653 E.47018
G1 X128.532 Y111.846 E.01263
G1 X118.222 Y101.536 E.46343
G1 X118.049 Y101.904 E.01291
G1 X128.171 Y112.026 E.45501
G1 X127.791 Y112.187 E.01311
G1 X117.884 Y102.28 E.44533
G1 X117.745 Y102.681 E.01349
G1 X127.39 Y112.326 E.43355
G1 X126.976 Y112.453 E.01375
G1 X117.619 Y103.095 E.42063
G1 X117.516 Y103.533 E.01429
G1 X126.537 Y112.554 E.40553
G1 X126.08 Y112.638 E.01477
G1 X117.438 Y103.996 E.3885
G1 X117.377 Y104.475 E.01537
G1 X125.589 Y112.688 E.36917
G1 X125.076 Y112.715 E.01635
G1 X117.353 Y104.992 E.34714
G1 X117.377 Y105.557 E.01796
G1 X124.513 Y112.693 E.32079
G1 X124.189 Y112.676 E.01032
G1 X123.917 Y112.638 E.00873
G1 X117.44 Y106.161 E.29116
G1 X117.513 Y106.631 E.01512
G1 X117.564 Y106.825 E.00638
G1 X123.242 Y112.503 E.25525
G1 X122.884 Y112.42 E.0117
G1 X122.478 Y112.28 E.01363
G1 X117.786 Y107.588 E.21092
G1 X118.002 Y108.155 E.01929
G1 X118.194 Y108.536 E.01356
G1 X121.548 Y111.89 E.15078
G1 X120.933 Y111.548 E.02238
G1 X120.276 Y111.086 E.02553
G1 X119.693 Y110.576 E.02463
G1 X118.475 Y109.357 E.05476
M204 S1000
; stop printing object menet.stl id:0 copy 0
;LAYER_CHANGE
;Z:0.35
;HEIGHT:0.15
;BEFORE_LAYER_CHANGE
G92 E0.0
;0.35


;WIPE_START
G1 F8640
G1 X119.693 Y110.576 E-.47738
G1 X120.276 Y111.086 E-.21468
G1 X120.933 Y111.548 E-.22256
G1 X121.045 Y111.61 E-.03539
;WIPE_END
G1 E-.05 F2520
G1 Z.4 F720
;AFTER_LAYER_CHANGE
;0.35
M104 S242 ; set temperature
M140 S90 ; set bed temperature
G1 X118.895 Y115.204 F10800
G1 Z.35 F720
G1 E1 F2520
;TYPE:Skirt/Brim
;WIDTH:0.42
G1 F3000
G1 X118.394 Y114.905 E.01411
G1 X117.4 Y114.158 E.03008
G1 X116.489 Y113.311 E.03008
G1 X115.131 Y111.623 E.05238
G1 X114.544 Y110.639 E.02772
G1 X114.019 Y109.513 E.03004
G1 X113.395 Y107.442 E.05231
G1 X113.211 Y106.216 E.03
G1 X113.156 Y104.977 E.02999
G1 X113.22 Y103.835 E.02766
G1 X113.414 Y102.611 E.02997
G1 X114.053 Y100.55 E.05219
G1 X114.539 Y99.517 E.02762
G1 X115.176 Y98.456 E.02992
G1 X115.92 Y97.468 E.02991
G1 X116.762 Y96.563 E.0299
G1 X118.439 Y95.212 E.05208
G1 X119.502 Y94.582 E.02988
G1 X120.624 Y94.067 E.02987
G1 X121.794 Y93.671 E.02987
G1 X122.904 Y93.415 E.02755
G1 X124.129 Y93.261 E.02986
G1 X125.181 Y93.231 E.02545
G1 X126.281 Y93.298 E.02664
G1 X127.5 Y93.495 E.02986
G1 X128.692 Y93.819 E.02987
G1 X129.756 Y94.225 E.02756
G1 X131.641 Y95.265 E.05206
G1 X132.626 Y96.011 E.02989
G1 X133.463 Y96.786 E.02758
G1 X134.824 Y98.456 E.05212
G1 X135.461 Y99.517 E.02992
G1 X135.947 Y100.55 E.02762
G1 X136.317 Y101.604 E.027
G1 X136.597 Y102.802 E.02976
G1 X136.768 Y104.816 E.04888
G1 X136.52 Y107.262 E.05947
G1 X135.846 Y109.458 E.05556
G1 X135.299 Y110.668 E.03211
G1 X134.476 Y112.004 E.03795
G1 X133.969 Y112.694 E.02071
G1 X133.189 Y113.537 E.02778
G1 X132.518 Y114.176 E.0224
G1 X131.191 Y115.152 E.03985
G1 X129.394 Y116.073 E.04884
G1 X128.233 Y116.468 E.02966
G1 X127.113 Y116.728 E.02781
G1 X124.952 Y116.918 E.05246
G1 X123.709 Y116.847 E.0301
G1 X122.575 Y116.667 E.02778
G1 X120.501 Y116.03 E.05245
G1 X119.462 Y115.543 E.02777
G1 X118.946 Y115.235 E.01453
G1 X119.14 Y114.912 F10800
G1 F3000
G1 X118.6 Y114.589 E.0152
G1 X117.638 Y113.865 E.02912
M73 Q1 S80
G1 X116.756 Y113.045 E.02912
G1 X115.448 Y111.419 E.05047
G1 X114.875 Y110.457 E.02708
G1 X114.367 Y109.367 E.02908
G1 X113.765 Y107.372 E.0504
G1 X113.586 Y106.184 E.02905
G1 X113.533 Y104.985 E.02903
G1 X113.596 Y103.87 E.02702
G1 X113.784 Y102.685 E.02901
G1 X114.4 Y100.699 E.05028
M73 P1 R80
G1 X114.875 Y99.69 E.02698
G1 X115.492 Y98.663 E.02897
G1 X116.212 Y97.706 E.02896
G1 X117.028 Y96.83 E.02895
G1 X118.644 Y95.529 E.05018
G1 X119.672 Y94.918 E.02893
G1 X120.759 Y94.419 E.02892
G1 X121.812 Y94.058 E.02692
G1 X122.976 Y93.786 E.02891
G1 X124.162 Y93.636 E.02891
G1 X125.175 Y93.608 E.0245
G1 X126.235 Y93.672 E.02569
G1 X127.415 Y93.863 E.02891
G1 X128.569 Y94.175 E.02892
G1 X129.609 Y94.573 E.02692
G1 X131.425 Y95.575 E.05016
G1 X132.38 Y96.296 E.02894
G1 X133.197 Y97.053 E.02694
G1 X134.508 Y98.663 E.05021
G1 X135.125 Y99.69 E.02897
G1 X135.6 Y100.699 E.02698
G1 X135.95 Y101.69 E.0254
G1 X136.229 Y102.888 E.02976
G1 X136.392 Y104.841 E.0474
G1 X136.156 Y107.166 E.05652
G1 X135.498 Y109.312 E.05428
G1 X134.957 Y110.508 E.03175
G1 X134.191 Y111.751 E.0353
G1 X133.692 Y112.438 E.02054
G1 X132.92 Y113.274 E.02751
G1 X132.29 Y113.875 E.02105
G1 X130.97 Y114.847 E.03966
G1 X129.258 Y115.721 E.04648
G1 X128.135 Y116.104 E.0287
G1 X127.04 Y116.358 E.02717
G1 X124.958 Y116.541 E.05055
G1 X123.755 Y116.473 E.02915
G1 X122.647 Y116.297 E.02714
G1 X120.649 Y115.684 E.05054
G1 X119.634 Y115.208 E.02713
G1 X119.191 Y114.943 E.01248
; printing object menet.stl id:0 copy 0
;WIPE_START
G1 F8640
G1 X118.6 Y114.589 E-.19082
G1 X117.638 Y113.865 E-.33367
G1 X116.756 Y113.045 E-.3336
G1 X116.549 Y112.787 E-.09191
;WIPE_END
G1 E-.05 F2520
G1 Z.55 F720
G1 X126.526 Y113.228 F10800
G1 Z.35 F720
G1 E1 F2520
M204 S800
;TYPE:Perimeter
;WIDTH:0.449999
G1 F2700
G1 X125.877 Y113.328 E.01712
G1 X125 Y113.374 E.02288
G1 X124.123 Y113.328 E.02288
G1 X123.558 Y113.248 E.01487
G1 X122.703 Y113.05 E.02288
G1 X121.873 Y112.763 E.02288
G1 X121.352 Y112.53 E.01486
G1 X120.586 Y112.103 E.02287
G1 X119.873 Y111.601 E.02272
G1 X119.212 Y111.024 E.02286
G1 X118.817 Y110.613 E.01485
G1 X118.268 Y109.93 E.02285
G1 X117.796 Y109.197 E.02269
G1 X117.404 Y108.42 E.02268
