; generated by PrusaSlicer 2.6.1+win64 on 2023-11-19 at 06:24:25 UTC


;
;
; 

; external perimeters extrusion width = 0.45mm
; perimeters extrusion width = 0.45mm
; infill extrusion width = 0.45mm
; solid infill extrusion width = 0.45mm
; top infill extrusion width = 0.40mm
; first layer extrusion width = 0.42mm

M73 P0 R79
M73 Q0 S80
M201 X1000 Y1000 Z200 E5000 ; sets maximum accelerations, mm/sec^2
M203 X200 Y200 Z12 E120 ; sets maximum feedrates, mm / sec
M204 S1250 T1250 ; sets acceleration (S) and retract acceleration (R), mm/sec^2
M205 X8.00 Y8.00 Z0.40 E4.50 ; sets the jerk limits, mm/sec
M205 S0 T0 ; sets the minimum extruding and travel feed rate, mm/sec
;TYPE:Custom
M862.3 P "MK3S" ; printer model check
M862.1 P0.4 ; nozzle diameter check
M115 U3.12.2 ; tell printer latest fw version
G90 ; use absolute coordinates
M83 ; extruder relative mode
M104 S240 ; set extruder temp
M140 S85 ; set bed temp
M190 S85 ; wait for bed temp
M109 S240 ; wait for extruder temp
G28 W ; home all without mesh bed level
G80 ; mesh bed leveling

G1 Z0.2 F720
G1 Y-3 F1000 ; go outside print area
G92 E0
G1 X60 E9 F1000 ; intro line
G1 X100 E12.5 F1000 ; intro line

G92 E0
M221 S95

; Don't change E values below. Excessive value can damage the printer.
M907 E430 ; set extruder motor current
G21 ; set units to millimeters
G90 ; use absolute coordinates
M83 ; use relative distances for extrusion
M900 K0.08 ; Filament gcode LA 1.5
M900 K45 ; Filament gcode LA 1.0
M107
;LAYER_CHANGE
;Z:0.2
;HEIGHT:0.2
;BEFORE_LAYER_CHANGE
G92 E0.0
;0.2


M73 Q0 S79
G1 E-1 F2520
G1 Z.2 F720
;AFTER_LAYER_CHANGE
;0.2
G1 Z.4
G1 X107.211 Y87.534 F10800
G1 Z.2 F720
G1 E1 F2520
M204 S800
;TYPE:Skirt/Brim
;WIDTH:0.42
G1 F1200
G1 X110.958 Y84.398 E.1532
G1 X115.246 Y82.054 E.15322
G1 X119.908 Y80.591 E.1532
G1 X124.767 Y80.067 E.15323
G1 X127.547 Y80.294 E.08746
G1 X130.092 Y80.591 E.08034
G1 X134.324 Y81.876 E.13867
G1 X138.654 Y84.139 E.15319
G1 X142.46 Y87.205 E.15324
G1 X145.595 Y90.952 E.15318
G1 X147.939 Y95.244 E.15333
G1 X149.402 Y99.907 E.15323
G1 X149.925 Y104.767 E.15326
G1 X149.492 Y109.635 E.15324
G1 X148.117 Y114.325 E.15324
G1 X145.854 Y118.658 E.15327
G1 X142.789 Y122.465 E.15324
G1 X139.042 Y125.601 E.1532
G1 X134.754 Y127.945 E.15322
G1 X130.091 Y129.408 E.15323
G1 X125.233 Y129.932 E.1532
G1 X120.365 Y129.498 E.15324
G1 X115.677 Y128.123 E.15318
G1 X111.345 Y125.86 E.15324
G1 X107.54 Y122.793 E.15323
G1 X104.405 Y119.045 E.15321
G1 X102.061 Y114.756 E.15325
G1 X100.598 Y110.091 E.15329
G1 X100.075 Y105.233 E.1532
G1 X100.508 Y100.364 E.15327
G1 X101.882 Y95.673 E.15326
G1 X104.146 Y91.34 E.15329
G1 X107.174 Y87.581 E.15134
M204 S1000
; printing object sutiNyomoNagyMinta4.stl id:0 copy 0
;WIPE_START
G1 F8640
G1 X109.936 Y85.258 E-1
;WIPE_END
G1 Z.4 F720
G1 X146.525 Y105 F10800
G1 Z.2 F720
G1 E1 F2520
M204 S800
;TYPE:Perimeter
;WIDTH:0.419999
G1 F1200
G1 X146.112 Y109.199 E.13229
G1 X144.886 Y113.24 E.13241
G1 X142.897 Y116.961 E.13229
G1 X140.22 Y120.224 E.13233
G1 X136.959 Y122.903 E.13233
G1 X133.236 Y124.892 E.13235
G1 X129.199 Y126.118 E.13229
G1 X125 Y126.531 E.13229
G1 X120.801 Y126.118 E.13229
G1 X116.762 Y124.892 E.13235
G1 X113.041 Y122.903 E.13229
G1 X109.78 Y120.224 E.13233
G1 X107.103 Y116.961 E.13233
G1 X105.114 Y113.24 E.13229
G1 X103.888 Y109.199 E.13241
G1 X103.475 Y104.996 E.13242
G1 X103.888 Y100.807 E.13198
G1 X105.116 Y96.756 E.13272
G1 X107.103 Y93.037 E.13221
G1 X109.78 Y89.774 E.13233
G1 X113.041 Y87.095 E.13233
G1 X116.764 Y85.106 E.13235
G1 X120.801 Y83.882 E.13227
G1 X125 Y83.467 E.1323
G1 X129.199 Y83.882 E.1323
G1 X133.236 Y85.106 E.13227
G1 X136.959 Y87.095 E.13235
G1 X140.22 Y89.774 E.13233
G1 X142.897 Y93.037 E.13233
G1 X144.886 Y96.76 E.13235
G1 X146.112 Y100.799 E.13235
G1 X146.519 Y104.94 E.13046
M204 S1000
G1 X146.904 Y105 F10800
M204 S800
;TYPE:External perimeter
G1 F1200
G1 X146.483 Y109.273 E.13463
G1 X145.236 Y113.385 E.13473
G1 X143.212 Y117.171 E.13461
G1 X140.488 Y120.492 E.13467
G1 X137.169 Y123.218 E.13467
G1 X133.381 Y125.242 E.13466
G1 X129.273 Y126.489 E.13461
G1 X125 Y126.91 E.13463
G1 X120.727 Y126.489 E.13463
G1 X116.617 Y125.242 E.13467
G1 X112.831 Y123.218 E.13461
G1 X109.512 Y120.492 E.13467
G1 X106.788 Y117.171 E.13467
G1 X104.764 Y113.385 E.13461
G1 X103.517 Y109.273 E.13473
G1 X103.096 Y104.996 E.13475
G1 X103.517 Y100.733 E.13431
G1 X104.766 Y96.611 E.13505
G1 X106.788 Y92.827 E.13452
G1 X109.512 Y89.506 E.13467
G1 X112.831 Y86.78 E.13467
G1 X116.619 Y84.756 E.13466
G1 X120.727 Y83.51 E.1346
G1 X125 Y83.088 E.13463
G1 X129.273 Y83.51 E.13463
G1 X133.381 Y84.756 E.1346
G1 X137.169 Y86.78 E.13466
G1 X140.488 Y89.506 E.13467
G1 X143.212 Y92.827 E.13467
G1 X145.236 Y96.615 E.13466
G1 X146.483 Y100.725 E.13467
G1 X146.898 Y104.94 E.1328
M204 S1000
G1 X146.557 Y105.2 F10800
;WIPE_START
G1 F8640
G1 X146.554 Y108.533 E-1
;WIPE_END
G1 Z.4 F720
G1 X130.298 Y96.111 F10800
G1 Z.2 F720
G1 E1 F2520
M204 S800
;TYPE:Perimeter
G1 F1200
G1 X131.716 Y97.187 E.05581
G1 X132.91 Y98.469 E.05493
G1 X133.873 Y99.956 E.05555
G1 X134.619 Y101.645 E.05789
G1 X135.037 Y103.355 E.05519
G1 X135.149 Y105.006 E.05188
G1 X135.076 Y105.774 E.02419
G1 X135.032 Y106.694 E.02888
G1 X134.665 Y108.426 E.05551
G1 X133.98 Y110.069 E.05581
G1 X133.002 Y111.566 E.05607
G1 X132.621 Y111.989 E.01785
G1 X131.768 Y112.87 E.03845
G1 X130.324 Y113.931 E.05618
G1 X129.555 Y114.331 E.02718
G1 X128.611 Y114.763 E.03255
G1 X126.874 Y115.244 E.05651
G1 X125.173 Y115.414 E.0536
G1 X123.379 Y115.334 E.05631
G1 X121.595 Y114.942 E.05727
G1 X119.893 Y114.241 E.05771
G1 X118.253 Y113.188 E.06111
G1 X116.889 Y111.917 E.05846
G1 X115.747 Y110.39 E.05979
G1 X114.961 Y108.683 E.05892
G1 X114.482 Y106.864 E.05898
G1 X114.327 Y104.985 E.05911
G1 X114.522 Y103.102 E.05936
G1 X115.024 Y101.394 E.05582
G1 X115.839 Y99.723 E.05829
G1 X116.931 Y98.216 E.05835
G1 X118.26 Y96.925 E.05809
G1 X119.79 Y95.887 E.05797
G1 X121.564 Y95.1 E.06085
G1 X123.349 Y94.666 E.0576
G1 X125.183 Y94.548 E.05762
G1 X126.997 Y94.77 E.0573
G1 X128.642 Y95.267 E.05388
G1 X130.248 Y96.077 E.0564
M204 S1000
G1 X130.085 Y96.418 F10800
M204 S800
;TYPE:External perimeter
G1 F1200
G1 X131.487 Y97.486 E.05526
G1 X132.633 Y98.724 E.05289
G1 X133.555 Y100.159 E.05348
G1 X134.254 Y101.737 E.05411
G1 X134.661 Y103.38 E.05307
G1 X134.773 Y105.031 E.05188
G1 X134.701 Y105.734 E.02216
G1 X134.655 Y106.683 E.02979
G1 X134.297 Y108.345 E.05331
G1 X133.633 Y109.922 E.05365
G1 X132.687 Y111.358 E.05392
G1 X131.497 Y112.607 E.05409
G1 X130.102 Y113.626 E.05417
G1 X129.384 Y113.995 E.02531
G1 X128.509 Y114.4 E.03023
G1 X126.836 Y114.869 E.05448
G1 X125.136 Y115.039 E.05357
G1 X123.397 Y114.957 E.05459
G1 X121.678 Y114.574 E.05522
G1 X120.039 Y113.893 E.05565
G1 X118.509 Y112.911 E.057
G1 X117.19 Y111.689 E.05638
M73 P0 R78
G1 X116.089 Y110.231 E.05728
G1 X115.325 Y108.585 E.0569
G1 X114.857 Y106.831 E.05692
G1 X114.702 Y105.021 E.05696
G1 X114.884 Y103.209 E.0571
G1 X115.384 Y101.503 E.05574
G1 X116.177 Y99.89 E.05636
G1 X117.235 Y98.439 E.0563
G1 X118.522 Y97.197 E.05608
G1 X120 Y96.2 E.0559
G1 X121.654 Y95.466 E.05674
G1 X123.375 Y95.042 E.05557
G1 X125.139 Y94.922 E.05544
G1 X126.888 Y95.131 E.05523
G1 X128.533 Y95.628 E.05388
G1 X130.032 Y96.39 E.05272
M204 S1000
G1 X130.439 Y96.231 F10800
;WIPE_START
G1 F8640
G1 X131.487 Y97.486 E-.50474
G1 X132.633 Y98.724 E-.46744
G1 X132.687 Y98.808 E-.02782
;WIPE_END
G1 Z.4 F720
G1 X142.977 Y93.548 F10800
G1 Z.2 F720
G1 E1 F2520
M204 S800
;TYPE:Solid infill
;WIDTH:0.421266
G1 F1200
G1 X136.987 Y87.558 E.2665
G1 X136.769 Y87.379 E.00887
G1 X135.703 Y86.809 E.03803
G1 X143.178 Y94.284 E.33257
G1 X143.793 Y95.434 E.04103
G1 X134.554 Y86.195 E.41105
G1 X133.405 Y85.58 E.041
G1 X144.407 Y96.583 E.48951
G1 X144.571 Y96.89 E.01095
G1 X144.742 Y97.453 E.01851
G1 X132.538 Y85.249 E.54296
G1 X131.77 Y85.016 E.02525
G1 X144.975 Y98.221 E.5875
G1 X145.208 Y98.989 E.02525
G1 X131.002 Y84.783 E.63203
G1 X130.234 Y84.55 E.02525
G1 X145.441 Y99.757 E.67657
G1 X145.674 Y100.525 E.02525
G1 X129.467 Y84.318 E.72106
G1 X129.133 Y84.217 E.01098
G1 X128.797 Y84.183 E.01062
G1 X145.81 Y101.196 E.75692
G1 X145.868 Y101.789 E.01874
G1 X128.204 Y84.125 E.78588
G1 X127.61 Y84.066 E.01878
G1 X145.926 Y102.383 E.81491
G1 X145.985 Y102.976 E.01875
M73 P1 R78
M73 Q1 S79
G1 X127.016 Y84.007 E.84394
G1 X126.422 Y83.949 E.01878
G1 X146.043 Y103.57 E.87295
G1 X146.101 Y104.163 E.01874
G1 X125.829 Y83.89 E.90194
G1 X125.235 Y83.831 E.01878
G1 X146.16 Y104.756 E.93097
G1 X146.184 Y105 E.00771
G1 X146.156 Y105.287 E.00907
G1 X124.706 Y83.837 E.95432
G1 X124.219 Y83.885 E.0154
G1 X146.108 Y105.774 E.97385
G1 X146.06 Y106.261 E.0154
G1 X123.732 Y83.934 E.99336
G1 X123.245 Y83.982 E.0154
G1 X146.012 Y106.749 E1.01292
G1 X145.964 Y107.236 E.0154
G1 X122.758 Y84.03 E1.03245
G1 X122.271 Y84.078 E.0154
M73 Q1 S78
G1 X145.916 Y107.723 E1.05198
G1 X145.868 Y108.21 E.0154
G1 X121.784 Y84.126 E1.07151
G1 X121.297 Y84.174 E.0154
G1 X145.82 Y108.697 E1.09104
G1 X145.764 Y109.176 E.01517
G1 X120.819 Y84.231 E1.10982
G1 X120.408 Y84.356 E.01351
G1 X145.64 Y109.587 E1.12256
G1 X145.515 Y109.997 E.01348
G1 X119.998 Y84.48 E1.13527
G1 X119.587 Y84.605 E.01351
G1 X145.391 Y110.408 E1.14801
G1 X145.266 Y110.818 E.01348
G1 X134.043 Y99.595 E.49932
G1 X134.195 Y99.834 E.00891
G1 X134.554 Y100.641 E.02779
G1 X145.142 Y111.229 E.47107
G1 X145.017 Y111.64 E.01351
G1 X134.936 Y101.559 E.44851
G1 X135.116 Y102.274 E.0232
G1 X144.893 Y112.05 E.43496
G1 X144.768 Y112.461 E.01351
G1 X135.296 Y102.989 E.42141
G1 X135.373 Y103.296 E.00996
G1 X135.395 Y103.623 E.01031
G1 X144.644 Y112.871 E.41147
G1 X144.571 Y113.11 E.00786
G1 X144.493 Y113.256 E.00521
G1 X135.434 Y104.196 E.40306
G1 X135.472 Y104.77 E.0181
G1 X144.307 Y113.604 E.39305
G1 X144.12 Y113.953 E.01246
G1 X135.464 Y105.297 E.38511
G1 X135.416 Y105.783 E.01536
G1 X143.934 Y114.302 E.37899
G1 X143.747 Y114.65 E.01243
G1 X135.384 Y106.287 E.37207
G1 X135.361 Y106.799 E.01612
G1 X143.561 Y114.999 E.36482
G1 X143.375 Y115.348 E.01244
G1 X135.267 Y107.24 E.36073
G1 X135.172 Y107.68 E.01416
G1 X143.188 Y115.696 E.35664
G1 X143.002 Y116.045 E.01244
G1 X135.078 Y108.121 E.35254
G1 X134.976 Y108.554 E.01399
G1 X142.815 Y116.394 E.34878
G1 X142.629 Y116.742 E.01241
G1 X134.819 Y108.932 E.34747
G1 X134.662 Y109.31 E.01288
G1 X142.392 Y117.041 E.34393
G1 X142.151 Y117.335 E.01196
G1 X134.505 Y109.689 E.34018
G1 X134.348 Y110.067 E.01288
G1 X141.91 Y117.629 E.33644
G1 X141.669 Y117.923 E.01196
G1 X134.158 Y110.411 E.33419
G1 X133.946 Y110.735 E.01218
G1 X141.428 Y118.217 E.33288
G1 X141.187 Y118.511 E.01196
G1 X133.735 Y111.058 E.33157
G1 X133.523 Y111.382 E.01218
G1 X140.946 Y118.804 E.33023
G1 X140.705 Y119.098 E.01196
G1 X133.311 Y111.705 E.32894
G1 X133.232 Y111.827 E.00457
G1 X133.069 Y111.998 E.00743
G1 X140.463 Y119.392 E.32896
G1 X140.222 Y119.686 E.01196
G1 X132.808 Y112.272 E.32985
G1 X132.546 Y112.545 E.0119
G1 X139.979 Y119.983 E.33081
G1 X139.688 Y120.222 E.01185
G1 X132.285 Y112.819 E.32936
G1 X132.024 Y113.093 E.0119
G1 X139.394 Y120.463 E.3279
G1 X139.1 Y120.705 E.01198
G1 X131.718 Y113.323 E.32843
G1 X131.409 Y113.549 E.01204
G1 X138.807 Y120.946 E.32912
G1 X138.513 Y121.187 E.01196
M73 P1 R77
G1 X131.1 Y113.775 E.32979
G1 X130.791 Y114 E.01203
G1 X138.219 Y121.429 E.3305
G1 X137.925 Y121.67 E.01196
M73 P2 R77
M73 Q2 S78
G1 X130.482 Y114.226 E.33117
G1 X130.136 Y114.415 E.0124
G1 X137.632 Y121.911 E.3335
G1 X137.338 Y122.152 E.01196
G1 X129.781 Y114.596 E.33619
G1 X129.419 Y114.769 E.01262
G1 X137.044 Y122.394 E.33924
G1 X136.747 Y122.631 E.01195
G1 X129.054 Y114.939 E.34224
G1 X128.829 Y115.044 E.00781
G1 X128.67 Y115.089 E.0052
G1 X136.398 Y122.818 E.34385
G1 X136.049 Y123.004 E.01244
G1 X128.254 Y115.209 E.3468
G1 X127.838 Y115.328 E.01361
G1 X135.701 Y123.19 E.34981
G1 X135.352 Y123.377 E.01246
G1 X127.422 Y115.447 E.35281
G1 X127.007 Y115.567 E.01359
G1 X135.003 Y123.563 E.35575
G1 X134.654 Y123.75 E.01246
G1 X126.52 Y115.615 E.36191
G1 X126.034 Y115.664 E.01537
G1 X134.306 Y123.936 E.36803
G1 X133.957 Y124.122 E.01244
G1 X125.547 Y115.713 E.37414
G1 X125.054 Y115.754 E.01556
G1 X133.608 Y124.309 E.38059
G1 X133.26 Y124.495 E.01241
G1 X124.491 Y115.727 E.39012
G1 X123.929 Y115.699 E.0177
G1 X132.877 Y124.647 E.3981
G1 X132.466 Y124.772 E.01351
G1 X123.367 Y115.672 E.40484
G1 X122.692 Y115.532 E.02169
G1 X132.056 Y124.896 E.41661
G1 X131.645 Y125.021 E.01351
G1 X122.005 Y115.38 E.42891
G1 X121.509 Y115.271 E.01598
G1 X121.256 Y115.167 E.00861
G1 X131.235 Y125.145 E.44395
G1 X130.824 Y125.27 E.01351
G1 X120.037 Y114.483 E.47992
M204 S1000
;WIPE_START
G1 F8640
G1 X122.589 Y117.035 E-1
;WIPE_END
G1 Z.4 F720
G1 X130.513 Y96.065 F10800
G1 Z.2 F720
G1 E1 F2520
M204 S800
G1 F1200
G1 X119.177 Y84.729 E.50435
G1 X118.766 Y84.853 E.01351
G1 X128.942 Y95.03 E.45276
G1 X128.857 Y94.986 E.00301
G1 X128.147 Y94.769 E.02336
G1 X118.355 Y84.978 E.43563
G1 X117.945 Y85.102 E.01348
G1 X127.377 Y94.534 E.41964
G1 X127.022 Y94.426 E.01167
G1 X126.697 Y94.389 E.01029
G1 X117.534 Y85.227 E.40765
G1 X117.124 Y85.351 E.01348
G1 X126.094 Y94.321 E.39908
G1 X125.491 Y94.253 E.01909
G1 X116.74 Y85.503 E.38931
G1 X116.392 Y85.689 E.01241
G1 X124.918 Y94.216 E.37935
G1 X124.418 Y94.251 E.01577
G1 X116.043 Y85.876 E.37261
G1 X115.694 Y86.062 E.01244
G1 X123.918 Y94.286 E.36589
G1 X123.418 Y94.321 E.01577
G1 X115.345 Y86.248 E.35917
G1 X114.997 Y86.435 E.01243
G1 X122.97 Y94.408 E.35472
G1 X122.54 Y94.513 E.01393
G1 X114.648 Y86.621 E.35112
G1 X114.299 Y86.808 E.01246
G1 X122.11 Y94.618 E.34749
G1 X121.679 Y94.723 E.01396
G1 X113.951 Y86.994 E.34385
G1 X113.602 Y87.18 E.01244
G1 X121.279 Y94.857 E.34155
G1 X120.906 Y95.019 E.01279
G1 X113.253 Y87.367 E.34046
G1 X112.956 Y87.604 E.01195
G1 X120.534 Y95.182 E.33715
G1 X120.161 Y95.345 E.01281
M73 Q2 S77
G1 X112.662 Y87.846 E.33363
G1 X112.368 Y88.087 E.01196
G1 X119.789 Y95.507 E.33014
G1 X119.459 Y95.713 E.01224
G1 X112.075 Y88.328 E.32854
G1 X111.781 Y88.57 E.01198
G1 X119.138 Y95.927 E.32732
G1 X118.817 Y96.14 E.01212
G1 X111.487 Y88.811 E.32609
G1 X111.193 Y89.052 E.01196
G1 X118.496 Y96.354 E.32489
G1 X118.175 Y96.568 E.01214
G1 X110.9 Y89.293 E.32367
G1 X110.606 Y89.535 E.01198
G1 X117.887 Y96.816 E.32394
G1 X117.614 Y97.078 E.0119
G1 X110.312 Y89.776 E.32487
G1 X110.019 Y90.018 E.01196
G1 X117.341 Y97.34 E.32576
G1 X117.068 Y97.602 E.0119
G1 X109.778 Y90.312 E.32434
G1 X109.536 Y90.606 E.01198
G1 X116.795 Y97.864 E.32293
G1 X116.561 Y98.165 E.01199
G1 X109.295 Y90.9 E.32325
G1 X109.054 Y91.194 E.01196
G1 X116.334 Y98.473 E.32387
G1 X116.108 Y98.782 E.01204
G1 X108.813 Y91.488 E.32454
G1 X108.572 Y91.781 E.01194
G1 X115.881 Y99.09 E.32518
G1 X115.654 Y99.399 E.01206
G1 X108.331 Y92.075 E.32583
G1 X108.09 Y92.369 E.01196
G1 X115.456 Y99.735 E.32772
G1 X115.281 Y100.095 E.01259
G1 X107.849 Y92.663 E.33065
G1 X107.608 Y92.957 E.01196
G1 X115.106 Y100.455 E.33359
G1 X114.93 Y100.815 E.01261
G1 X107.371 Y93.256 E.3363
G1 X107.185 Y93.605 E.01244
G1 X114.755 Y101.175 E.33679
G1 X114.702 Y101.284 E.00381
G1 X114.618 Y101.572 E.00944
G1 X106.998 Y93.953 E.339
G1 X106.812 Y94.302 E.01244
G1 X114.496 Y101.986 E.34187
G1 X114.375 Y102.4 E.01357
G1 X106.626 Y94.651 E.34476
G1 X106.439 Y94.999 E.01243
G1 X114.254 Y102.814 E.34769
G1 X114.182 Y103.058 E.008
G1 X114.162 Y103.257 E.00629
G1 X106.253 Y95.348 E.35188
G1 X106.066 Y95.697 E.01246
G1 X114.114 Y103.744 E.35804
G1 X114.065 Y104.23 E.01537
G1 X105.88 Y96.045 E.36416
G1 X105.694 Y96.394 E.01244
G1 X114.016 Y104.716 E.37025
G1 X113.984 Y105.034 E.01005
G1 X114.002 Y105.238 E.00644
G1 X105.507 Y96.743 E.37795
G1 X105.431 Y96.886 E.00509
G1 X105.357 Y97.128 E.00796
G1 X114.055 Y105.825 E.38696
G1 X114.107 Y106.413 E.01857
G1 X105.233 Y97.538 E.39483
G1 X105.109 Y97.949 E.01351
G1 X114.16 Y107 E.40268
G1 X114.354 Y107.73 E.02376
G1 X104.984 Y98.36 E.41688
G1 X104.86 Y98.77 E.01348
G1 X114.55 Y108.461 E.43114
G1 X114.643 Y108.807 E.01127
G1 X114.887 Y109.333 E.01824
G1 X104.735 Y99.181 E.45167
G1 X104.611 Y99.592 E.01351
G1 X115.35 Y110.331 E.47778
